web/public/assets/total-revenue.svg

<svg fill="none" height="44" viewBox="0 0 44 44" width="44" xmlns="http://www.w3.org/2000/svg" xmlns:xlink="http://www.w3.org/1999/xlink"><clipPath id="a"><path d="m10.3333 11h23v23h-23z"/></clipPath><rect fill="#f1f1f1" height="44" rx="22" width="44"/><g clip-path="url(#a)"><path d="m25.9133 19.17c-.22 0-.45 0-.67 0v-4.17c0-1.17-.83-2.23-2.35-3-1.5902-.7092-3.3197-1.051-5.06-1-1.7601-.0329-3.5055.3257-5.11 1.05-1.54.76-2.39 1.82-2.39 2.95v12.26c0 1.17.85 2.23 2.39 3 1.6052.7208 3.3506 1.0761 5.11 1.04.747.0013 1.4928-.0589 2.23-.18.7767.9844 1.7906 1.7556 2.9467 2.2414 1.1561.4857 2.4166.6702 3.6634.536s2.4391-.5826 3.4654-1.3033c1.0262-.7206 1.8528-1.6899 2.4023-2.8171s.8039-2.3754.7395-3.6277c-.0644-1.2524-.4456-2.4679-1.1078-3.5327-.6623-1.0649-1.584-1.9443-2.6787-2.5558-1.0948-.6115-2.3269-.9352-3.5808-.9408zm-12.58-5.91c1.4153-.63 2.9509-.944 4.5-.92 3.57 0 6.06 1.42 6.06 2.7s-2.49 2.69-6.06 2.69c-1.5483.0271-3.0839-.2834-4.5-.91-1.06-.52-1.66-1.16-1.66-1.82s.6-1.23 1.66-1.74zm-1.66 4.13c.3329.2314.684.4354 1.05.61 1.6084.7071 3.3536 1.0486 5.11 1 1.7407.0558 3.4713-.2862 5.06-1 .3535-.1681.6887-.3726 1-.61v2c-1.3271.3778-2.522 1.119-3.45 2.14-.8575.1868-1.7325.2807-2.61.28-1.541.0587-3.0763-.2177-4.5-.81-1.06-.56-1.66-1.21-1.66-1.83zm6.16 12.61c-1.555-.0011-3.0909-.3425-4.5-1-1.05-.52-1.65-1.16-1.65-1.78v-1.7c.3295.2453.681.4595 1.05.64 1.5974.74 3.3394 1.1158 5.1 1.1h.7c.078.9156.3291 1.8081.74 2.63-.4772.0671-.9582.1039-1.44.11zm.7-4.06h-.7c-1.551.0226-3.0878-.2984-4.5-.94-1.05-.51-1.65-1.16-1.65-1.77v-1.7c.3295.2453.681.4595 1.05.64 1.6014.7228 3.3432 1.0814 5.1 1.05.5013-.0007 1.0021-.0307 1.5-.09-.4447.8588-.7165 1.7965-.8 2.76zm7.38 6.76c-1.2006 0-2.3742-.356-3.3724-1.023s-1.7762-1.615-2.2356-2.7241c-.4594-1.1092-.5796-2.3296-.3454-3.5071s.8123-2.259 1.6612-3.1079 1.9305-1.4271 3.108-1.6613c1.1774-.2342 2.3979-.114 3.507.3454 1.1092.4595 2.0572 1.2375 2.7242 2.2357s1.023 2.1718 1.023 3.3723c-.0132 1.6012-.6586 3.1323-1.7955 4.2598-1.1369 1.1276-2.6733 1.7602-4.2745 1.7602z" fill="#1a1a1a"/><path d="m27.9433 27.93c.0039.4198-.1244.8301-.3667 1.1729s-.5863.6007-.9833.7371v1.45h-1.35v-1.45c-.397-.1364-.741-.3943-.9833-.7371s-.3706-.7531-.3667-1.1729h1.35c-.002.1353.0364.2682.1104.3815s.18.202.3047.2547.2622.0671.395.0411c.1329-.0259.2549-.0908.3506-.1865s.1607-.2178.1866-.3507c.0259-.1328.0116-.2703-.0411-.395-.0527-.1246-.1414-.2307-.2547-.3047-.1134-.0739-.2462-.1124-.3815-.1104-.5003.0438-.9988-.1023-1.3964-.4091-.3976-.3069-.6652-.7521-.7496-1.2472s.0206-1.0038.294-1.425c.2735-.4213.6954-.7242 1.182-.8487v-1.46h1.35v1.46c.3953.1359.7382.3922.9804.733.2421.3408.3714.7489.3696 1.167h-1.35c0-.1345-.0399-.266-.1146-.3778s-.1809-.199-.3052-.2504c-.1243-.0515-.261-.065-.3929-.0387-.1319.0262-.2531.091-.3482.1861s-.1598.2162-.1861.3481c-.0262.1319-.0127.2687.0387.3929.0515.1243.1387.2305.2505.3052s.2433.1146.3778.1146c.2668-.004.5318.0454.7792.1454.2475.0999.4724.2484.6616.4367.1892.1882.3388.4124.4399.6594.1012.2469.152.5116.1493.7785z" fill="#2667ff"/></g></svg>

<svg width="44" height="44" viewBox="0 0 44 44" fill="none" xmlns="http://www.w3.org/2000/svg">
<rect width="44" height="44" rx="22" fill="#F1F1F1"/>
<g clip-path="url(#clip0_15_810)">
<path d="M25.9133 19.17C25.6933 19.17 25.4633 19.17 25.2433 19.17V15C25.2433 13.83 24.4133 12.77 22.8933 12C21.3031 11.2908 19.5736 10.949 17.8333 11C16.0732 10.9671 14.3278 11.3257 12.7233 12.05C11.1833 12.81 10.3333 13.87 10.3333 15V27.26C10.3333 28.43 11.1833 29.49 12.7233 30.26C14.3285 30.9808 16.0739 31.3361 17.8333 31.3C18.5803 31.3013 19.3261 31.2411 20.0633 31.12C20.84 32.1044 21.8539 32.8756 23.01 33.3614C24.1661 33.8471 25.4266 34.0316 26.6734 33.8974C27.9202 33.7632 29.1125 33.3148 30.1388 32.5941C31.165 31.8735 31.9916 30.9042 32.5411 29.777C33.0906 28.6498 33.345 27.4016 33.2806 26.1493C33.2162 24.8969 32.835 23.6814 32.1728 22.6166C31.5105 21.5517 30.5888 20.6723 29.4941 20.0608C28.3993 19.4493 27.1672 19.1256 25.9133 19.12V19.17ZM13.3333 13.26C14.7486 12.63 16.2842 12.316 17.8333 12.34C21.4033 12.34 23.8933 13.76 23.8933 15.04C23.8933 16.32 21.4033 17.73 17.8333 17.73C16.285 17.7571 14.7494 17.4466 13.3333 16.82C12.2733 16.3 11.6733 15.66 11.6733 15C11.6733 14.34 12.2733 13.77 13.3333 13.26ZM11.6733 17.39C12.0062 17.6214 12.3573 17.8254 12.7233 18C14.3317 18.7071 16.0769 19.0486 17.8333 19C19.574 19.0558 21.3046 18.7138 22.8933 18C23.2468 17.8319 23.582 17.6274 23.8933 17.39V19.39C22.5662 19.7678 21.3713 20.509 20.4433 21.53C19.5858 21.7168 18.7108 21.8107 17.8333 21.81C16.2923 21.8687 14.757 21.5923 13.3333 21C12.2733 20.44 11.6733 19.79 11.6733 19.17V17.39ZM17.8333 30C16.2783 29.9989 14.7424 29.6575 13.3333 29C12.2833 28.48 11.6833 27.84 11.6833 27.22V25.52C12.0128 25.7653 12.3643 25.9795 12.7333 26.16C14.3307 26.9 16.0727 27.2758 17.8333 27.26H18.5333C18.6113 28.1756 18.8624 29.0681 19.2733 29.89C18.7961 29.9571 18.3151 29.9939 17.8333 30ZM18.5333 25.94H17.8333C16.2823 25.9626 14.7455 25.6416 13.3333 25C12.2833 24.49 11.6833 23.84 11.6833 23.23V21.53C12.0128 21.7753 12.3643 21.9895 12.7333 22.17C14.3347 22.8928 16.0765 23.2514 17.8333 23.22C18.3346 23.2193 18.8354 23.1893 19.3333 23.13C18.8886 23.9888 18.6168 24.9265 18.5333 25.89V25.94ZM25.9133 32.7C24.7127 32.7 23.5391 32.344 22.5409 31.677C21.5427 31.01 20.7647 30.062 20.3053 28.9529C19.8459 27.8437 19.7257 26.6233 19.9599 25.4458C20.1941 24.2683 20.7722 23.1868 21.6211 22.3379C22.47 21.489 23.5516 20.9108 24.7291 20.6766C25.9065 20.4424 27.127 20.5626 28.2361 21.022C29.3453 21.4815 30.2933 22.2595 30.9603 23.2577C31.6273 24.2559 31.9833 25.4295 31.9833 26.63C31.9701 28.2312 31.3247 29.7623 30.1878 30.8898C29.0509 32.0174 27.5145 32.65 25.9133 32.65V32.7Z" fill="#1A1A1A"/>
<path d="M27.9433 27.93C27.9472 28.3498 27.8189 28.7601 27.5766 29.1029C27.3343 29.4457 26.9903 29.7036 26.5933 29.84V31.29H25.2433V29.84C24.8463 29.7036 24.5023 29.4457 24.26 29.1029C24.0177 28.7601 23.8894 28.3498 23.8933 27.93H25.2433C25.2413 28.0653 25.2797 28.1982 25.3537 28.3115C25.4277 28.4248 25.5337 28.5135 25.6584 28.5662C25.7831 28.6189 25.9206 28.6333 26.0534 28.6073C26.1863 28.5814 26.3083 28.5165 26.404 28.4208C26.4997 28.3251 26.5647 28.203 26.5906 28.0701C26.6165 27.9373 26.6022 27.7998 26.5495 27.6751C26.4968 27.5505 26.4081 27.4444 26.2948 27.3704C26.1814 27.2965 26.0486 27.258 25.9133 27.26C25.413 27.3038 24.9145 27.1577 24.5169 26.8509C24.1193 26.544 23.8517 26.0988 23.7673 25.6037C23.6829 25.1086 23.7879 24.5999 24.0613 24.1787C24.3348 23.7574 24.7567 23.4545 25.2433 23.33V21.87H26.5933V23.33C26.9886 23.4659 27.3315 23.7222 27.5737 24.063C27.8158 24.4038 27.9451 24.8119 27.9433 25.23H26.5933C26.5933 25.0955 26.5534 24.964 26.4787 24.8522C26.404 24.7404 26.2978 24.6532 26.1735 24.6018C26.0492 24.5503 25.9125 24.5368 25.7806 24.5631C25.6487 24.5893 25.5275 24.6541 25.4324 24.7492C25.3373 24.8443 25.2726 24.9654 25.2463 25.0973C25.2201 25.2292 25.2336 25.366 25.285 25.4902C25.3365 25.6145 25.4237 25.7207 25.5355 25.7954C25.6473 25.8701 25.7788 25.91 25.9133 25.91C26.1801 25.906 26.4451 25.9554 26.6925 26.0554C26.94 26.1553 27.1649 26.3038 27.3541 26.4921C27.5433 26.6803 27.6929 26.9045 27.794 27.1515C27.8952 27.3984 27.946 27.6631 27.9433 27.93Z" fill="#2667FF"/>
</g>
<defs>
<clipPath id="clip0_15_810">
<rect width="23" height="23" fill="white" transform="translate(10.3333 11)"/>
</clipPath>
</defs>
</svg>
